!!!COM: Fux, Johann Joseph
!!!OMD: Gradus ad Parnassum Exercise
!!!YEC: CC0 1.0 Universal (Public Domain). Mark Gotham and FourScoreAndMore.org waive all rights to this document.
**kern	**kern	**kern
*part3	*part2	*part1
*staff3	*staff2	*staff1
*I"3	*I"2	*I"1
*I'Pno	*I'Pno	*I'Pno
!!LO:PB:g=z
*clefGv2	*clefG2	*clefG2
*k[]	*k[]	*k[]
!!LO:TX:omd:t=
*M4/4	*M4/4	*M4/4
=430	=430	=430
!	!	!LO:TX:a:t=Fig. 154; Species&colon; 5; Modal final&colon; d; Cantus firmus&colon; 2
1D	1d	2r
.	.	[2a/
=431	=431	=431
1d	1f	4a/]
.	.	4f/
.	.	4a/
.	.	4b\
=432	=432	=432
1c	1e	4cc\
.	.	4g/
.	.	[2cc\
=433	=433	=433
1G	1d	4cc\]
.	.	8b/L
.	.	8a/J
.	.	[2b\
=434	=434	=434
1E	1g	4b\]
.	.	4g/
.	.	4b\
.	.	4cc#X\
=435	=435	=435
1D	1f	4dd\
.	.	4ff\
.	.	4ee\
.	.	4dd\
=436	=436	=436
1F	1a	4cc\
.	.	4f/
.	.	[2ff\
=437	=437	=437
1c	1g	4ff\]
.	.	8ee\L
.	.	8dd\J
.	.	[2ee\
=438	=438	=438
1d	1f	4ee\]
.	.	4a/
.	.	[2dd\
=439	=439	=439
1A	1e	2dd\]
.	.	2cc#X\
=440	=440	=440
1D	1d	1dd
==	==	==
*-	*-	*-
!!!software: music21 v.9.7.1
!!!software: music21 v.9.7.1
!!!software: MuseScore 3.4.2
!!!RDF**kern: > = above
!!!RDF**kern: < = below
